X: 3160
T: BAILE NICOL JARVIE
Q: "Reel."
R: Reel.
%R: reel
B: James Kerr "Merry Melodies" v.3 p.19 #160
Z: 2016 John Chambers <jc:trillian.mit.edu>
M: C
L: 1/8
K: F	% and Dm
uA |\
f2(ed) cAAc | defd eaag |\
f2(ed) cAAd | AGFE D/D/D (DA) |\
f2(ed) cAAc | defd eaag |\
f2(ed) cAAc | AGFE D/D/D D |]
A |\
FGAF D/D/D d2 | E/E/E e2 fefa |\
FGAF D/D/D d2 | AGFE D/D/D (DA) |\
FGAF D/D/D d2 | E/E/E e2 fefa |\
fa df Ad Fd | AGFE D/D/D D |]

%%sep 1 1 500
%%sep 1 1 500

